src/icons/svg/cloud-provider.svg

<?xml version="1.0" encoding="UTF-8"?>
<svg width="40px" height="34px" viewBox="0 0 40 34" version="1.1" xmlns="http://www.w3.org/2000/svg"
>
    <path d="M20.0024943,14.7807654 C20.7224045,14.7807654 21.3066794,15.3372177 21.3066794,16.0188718 L21.3066794,29.7406385 L26.0365243,25.0107937 L26.182593,24.8855919 C26.719548,24.4875439 27.4705183,24.5598771 27.9216269,25.0530951 C28.3727355,25.5463131 28.3779399,26.300741 27.9336789,26.8001358 L27.8815115,26.8575199 L22.1535303,32.5820233 L21.9413829,32.7767816 C20.7622252,33.7518248 19.0424474,33.6997103 17.9244926,32.6550577 L17.8514582,32.5820233 L12.1252159,26.8575199 L11.9982752,26.7097122 C11.6040662,26.1725837 11.6780964,25.4246855 12.1699582,24.975264 C12.6618201,24.5258425 13.4133459,24.5194181 13.9128191,24.9603652 L13.9684643,25.0125327 L18.6983091,29.7423775 L18.6983091,16.0188718 C18.6983091,15.3354788 19.282584,14.7807654 20.0024943,14.7807654 Z M19.5677659,1.19198202e-07 C23.9571812,-0.000623771614 27.9801508,2.44790699 29.9960304,6.34703469 L30.0916706,6.53309843 L30.2533896,6.54353191 C35.6708751,6.90112534 39.9087037,11.353719 39.9982611,16.7822548 L40,16.9544073 C39.9993573,21.950394 36.4583315,26.2452639 31.5540969,27.198347 C31.0965434,27.2868757 30.626517,27.1245776 30.3210721,26.772589 C30.0156272,26.4206003 29.9211682,25.9323965 30.0732769,25.4918792 C30.2253856,25.0513618 30.600953,24.725456 31.0585066,24.6369273 C35.0506682,23.8406721 37.7664049,20.117726 37.3054595,16.0731116 C36.8445141,12.0284971 33.3607245,9.01208143 29.2917704,9.13451307 C28.7433742,9.15385943 28.2415273,8.82786749 28.0362748,8.31896265 C26.4259206,4.32936194 22.2490695,2.00513008 18.0099055,2.73973412 C13.7707415,3.47433815 10.6194804,7.06845737 10.4454254,11.3672781 C10.4174368,12.0664358 9.84269682,12.6189228 9.1429792,12.6192958 L9.06646702,12.6192958 C6.84856639,12.4789573 4.73049802,13.5586415 3.54105254,15.4358728 C2.35160706,17.3131042 2.27990696,19.6894019 3.35400816,21.6349313 C4.42810936,23.5804607 6.47722918,24.7858816 8.69955625,24.7795182 C9.17654996,24.7624138 9.62478542,25.0072426 9.8681745,25.4178243 C10.1115636,25.828406 10.1112229,26.3391467 9.86728618,26.7494033 C9.62334951,27.1596599 9.17478779,27.4038904 8.69781732,27.3861496 C4.0676547,27.3877838 0.248476872,23.7605477 0.0115695057,19.1364496 C-0.22533786,14.5123515 3.20314615,10.5137944 7.80923253,10.0422259 L7.95182341,10.0283146 L7.96225689,9.96397483 C8.82822284,4.3036439 13.6510608,0.0935796515 19.3764854,1.19198202e-07 L19.5677659,1.19198202e-07 Z"
          id="形状"></path>
</svg>

<svg width="40" height="34" xmlns="http://www.w3.org/2000/svg"><path d="M20.002 14.78c.72 0 1.305.557 1.305 1.239V29.74l4.73-4.73.146-.125a1.304 1.304 0 0 1 1.75 1.914l-.051.058-5.728 5.724-.213.195a3.043 3.043 0 0 1-4.017-.122l-.073-.073-5.726-5.724-.127-.148a1.304 1.304 0 0 1 1.915-1.75l.055.053 4.73 4.73V16.018c0-.684.585-1.238 1.304-1.238zM19.568 0c4.39 0 8.412 2.448 10.428 6.347l.096.186.161.01a10.433 10.433 0 0 1 9.745 10.24l.002.171c0 4.996-3.542 9.291-8.446 10.244a1.304 1.304 0 0 1-.495-2.561 7.829 7.829 0 0 0-1.767-15.502 1.304 1.304 0 0 1-1.256-.816 9.131 9.131 0 0 0-17.59 3.048 1.304 1.304 0 0 1-1.303 1.252h-.077A6.086 6.086 0 1 0 8.7 24.78a1.304 1.304 0 1 1-.002 2.607 8.695 8.695 0 0 1-.889-17.344l.143-.014.01-.064A11.741 11.741 0 0 1 19.376 0h.192z"/></svg>
